X:1
T:Mein Vatter süsser
T:André Vierendeels
T:Melody by Georg Vogler (1625) (Soprano voice)
T:Source : Catechismus---Würzburg---J.Volmari---1652. Editor : André Vierendeels (06/09/17).
T:Notes : Original clef : C1, other voices supplied editorially Original note values have been halved Text Middle german
T:Mein Vatter süsser
T:©
T:©
C:André Vierendeels
Z:©
%%score [ 1 2 3 ]
L:1/8
Q:1/4=86
M:2/2
K:C
V:1 treble nm="Soprano" snm="S"
V:2 treble-8 nm="Tenor" snm="T"
V:3 bass nm="Bass" snm="B"
V:1
"^1)" D4 A2 F2 | G2 G2 F2 E2 | D4 z4 | D4 F2 G2 | A2 c2 B2 B2 | A4 z4 | A4 B2 A2 | G4 F4 | %8
w: Mein Vat- ter|süs- ser Bräu- ti-|gam:|der Welt bin|ich nur Hasz und|Gram?|Ach das ich|auff- ge-|
w: Mein Durst werd|ich hie lö- schen|nicht,|so lang die|Seel ausz mir nicht|bricht,|und flieg zu|dir mein|
 E2 E2 D4 | z4 F4 | F2 F2 G2 F2 | E4 D4 | C4 z4 | D4 A2 A2 | F4 A4 | G2 F2 E4 | z4 A4 | G2 F2 E4 | %18
w: löst möcht werd|und|bey dir seyn, mir|stinckt die|Erd,|dann wer er-|füllt meins|Her- tzen Muth,|zieh|mich zu dir,|
w: höch- ste Zier,|dein|An- ge- sicht er-|schei- ne|mir,|dasz ich dich|un- ver-|en- der- lich|mög|lie- ben, se-|
 D4 F2 G2 | E4 !fermata!D4 |] %20
w: mein höch- *|stes Gut.|
w: hen e- *|wig- lich.|
V:2
"^2)""^1)" d4 c2 A2 | d2 e2 d2 c2 | d4 z4 | A4 c2 c2 | d2 c2 d2 B2 | c4 z4 | d4 d2 d2 | B4 A2 d2- | %8
w: Mein Vat- ter|süs- ser Bräu- ti-|gam:|der Welt bin|ich nur Hasz unf|Gram?|Ach das ich|auff- ge- löst|
w: Ein sol- ches|Reich such ich bey|dir,|dasz du in|mir, mein Schatz und|Zier,|ble- best als|in den En-|
 d2 c2 d4 | z4 A4 | c2 d2 e2 c2 | c4 G4 | A4 z4 | A4 c2 c2 | c4 d4 | B2 c2 c4 | z4 d4 | B2 c2 c4 | %18
w: _ möcht werd|und|bey dir seyn, mir|stinckt die|Erd,|dann wer er-|füllt meins|Her- tzen Muth,|zieh|mich zu dir,|
w: * glen dein,|die|al- ler- zeit in|Gna- den|seyn,|da- mit ich|sey- e|auss- er- wehlt|und|un- der dei-|
 A4 c2 B2 | A4 !fermata!^F4 |] %20
w: mein höch- *|stes Gut.|
w: ne Schäff- *|le zehlt.|
V:3
"^3)""^1)""^4)" D,4 A,2 A,2 | G,2 C,2 D,2 C,2 | G,4 z4 | D,4 A,2 G,2 | F,2 C,2 D,2 G,2 | A,4 z4 | %6
w: Mein Vat- ter|süs- ser Bräu- ti-|gam:|der Welt bin|ich nur Hasz und|Gram?|
w: Bey dei- nem|Wort er- halt mich|Hertz,|die wah- re|Kirch mir nicht ver-|sperz.|
 D,2 F,2 G,2 D,2 | G,4 D,4 | A,2 A,2 D,4 | z4 D,4 | F,2 D,2 G,2 F,2 | C,4 G,4 | F,4 z4 | %13
w: Ach _ das ich|auff- ge-|löst mocht werd|und|bey dir seyn, mir|stinckt die|Erd,|
w: Zer- stör desz Teuf-|fels Re-|* gi- ment,|be-|gna- de durch die|Sa- cra-|ment,|
 F,4 E,2 C,2 | F,4 D,4 | G,2 A,2 A,4 | z4 D,4 | G,,2 A,,2 C,4 | D,4 F,2 E,2 | A,,4 !fermata!D,4 |] %20
w: dann wer er-|fült meins|Her- tzen Muth,|zieh|mich zu dir,|mein höch- *|stes Gut.|
w: nim hin mein|Wil- len|und Ver- stand,|dein|Gnad sey dann|mein un- *|der- pfand.|

